frontend/public/svg/interface/bell-2.svg

<svg width="158" height="161" viewBox="0 0 158 161" fill="none" xmlns="http://www.w3.org/2000/svg">
<g clip-path="url(#clip0)">
<path d="M7.33729 141.913C15.7587 141.641 24.1802 141.362 32.6016 141.072C38.2648 140.88 43.9273 140.69 49.5897 140.501C50.6037 140.467 51.6379 140.477 52.639 140.487C52.9225 140.487 53.2061 140.492 53.4876 140.493C53.5279 140.718 53.5667 140.93 53.603 141.132C53.7269 141.819 53.8301 142.384 53.9099 142.953C54.9933 150.659 59.3837 155.976 66.9588 158.753C70.0806 159.896 73.3822 160.477 76.7084 160.467C79.753 160.45 82.7808 160.018 85.7086 159.183C93.0688 157.136 97.808 152.388 99.7978 145.074C100.131 143.851 100.436 142.617 100.761 141.312C100.877 140.839 100.997 140.356 101.122 139.859L101.531 139.829C101.971 139.785 102.414 139.763 102.855 139.764C110.188 139.868 117.521 139.976 124.854 140.088L138.477 140.289C139.602 140.306 140.728 140.324 141.855 140.346C144.9 140.402 148.049 140.459 151.146 140.427C155.048 140.386 156.258 138.493 156.945 135.453C157.739 131.937 155.962 129.853 154.327 128.429C146.431 121.565 141.538 112.999 139.366 102.242C136.608 88.5839 133.592 74.4806 130.144 59.1253C125.765 39.6217 114.915 25.9082 97.895 18.3645C96.7187 17.844 95.549 17.3771 94.3092 16.8831C93.8798 16.7118 93.4464 16.5393 93.0085 16.3622C93.0085 16.2079 93.0098 16.0549 93.0124 15.9032C93.0189 15.2708 93.0247 14.6745 93 14.0654C92.7191 7.23483 88.5139 2.04664 82.0269 0.526512C76.3347 -0.806102 70.5043 2.36165 67.5213 8.41498C66.7759 10.0338 66.1576 11.7077 65.6717 13.422C65.4493 14.1332 65.221 14.8659 64.9686 15.6101L64.7637 15.6749C64.2842 15.8281 63.6992 16.0155 63.1069 16.1765C54.5634 18.4946 47.6863 22.0761 42.0868 27.124C28.7678 39.1266 20.9626 54.3199 18.8898 72.2835C18.1989 78.2715 18.0536 84.4083 17.9135 90.3426C17.8383 93.5555 17.7596 96.8783 17.5948 100.133C17.3438 105.109 16.95 110.393 16.3908 116.286C15.8809 121.653 13.4961 126.632 8.65635 132.439C8.03393 133.059 7.29661 133.553 6.48547 133.893C6.08648 134.097 5.67477 134.307 5.28551 134.543C4.94946 134.746 4.58869 134.931 4.20657 135.121C3.32398 135.5 2.51908 136.038 1.83264 136.708C0.939297 137.696 0.615629 138.759 0.924439 139.703C1.24103 140.678 2.17203 141.375 3.54545 141.669C4.79513 141.901 6.06802 141.983 7.33729 141.913ZM91.432 140.285C91.177 146.074 88.3179 149.756 82.9177 151.234C77.0418 152.84 71.9938 152.572 67.4824 150.41C63.5121 148.508 61.3967 145.366 60.6883 140.285H91.432ZM16.4092 134.042C23.3879 125.97 24.6761 116.302 25.0271 107.053C25.1718 103.251 25.2413 99.3851 25.3087 95.6466C25.3957 90.7933 25.4865 85.7745 25.7414 80.8533C26.7743 60.9034 33.7459 45.3317 47.0558 33.2476C53.9145 27.0204 62.7297 23.3549 73.2544 22.3598C74.7563 22.2176 76.2413 22.1466 77.7101 22.1471C87.701 22.1471 96.8887 25.4322 105.088 31.9453C113.385 38.5372 118.862 47.7176 121.368 59.2314C124.009 71.3614 126.558 84.1671 129.4 99.5326C131.967 113.428 136.35 123.284 143.535 131.234C96.587 130.567 54.9721 131.485 16.4092 134.042ZM79.2775 8.00233C82.2579 8.2157 84.0828 10.7277 84.0335 14.4682H72.6406C73.3381 10.8544 76.3931 7.78249 79.2775 8.00233Z" fill="black"/>
</g>
<defs>
<clipPath id="clip0">
<rect width="157" height="161" fill="white" transform="translate(0.777344)"/>
</clipPath>
</defs>
</svg>

<svg xmlns="http://www.w3.org/2000/svg" width="158" height="161" fill="none" viewBox="0 0 158 161"><g clip-path="url(#a)"><path fill="#000" d="M7.337 141.913q12.632-.407 25.265-.841 8.494-.288 16.988-.571a71 71 0 0 1 3.049-.014c.283 0 .567.005.849.006l.115.639c.124.687.227 1.252.307 1.821 1.083 7.706 5.474 13.023 13.049 15.8a28.1 28.1 0 0 0 9.75 1.714 33.5 33.5 0 0 0 9-1.284c7.36-2.047 12.099-6.795 14.089-14.109.333-1.223.638-2.457.963-3.762q.174-.709.361-1.453l.409-.03q.661-.066 1.324-.065 11 .156 21.999.324l13.623.201q1.688.025 3.378.057c3.045.056 6.194.113 9.291.081 3.902-.041 5.112-1.934 5.799-4.974.794-3.516-.983-5.6-2.618-7.024-7.896-6.864-12.789-15.43-14.961-26.187-2.758-13.658-5.774-27.761-9.222-43.117-4.379-19.503-15.229-33.217-32.249-40.76a102 102 0 0 0-3.586-1.482q-.645-.256-1.3-.52 0-.232.003-.46A35 35 0 0 0 93 14.065C92.72 7.235 88.514 2.047 82.027.527 76.335-.806 70.504 2.362 67.52 8.415a34.4 34.4 0 0 0-1.85 5.007c-.222.711-.45 1.444-.702 2.188l-.205.065c-.48.153-1.065.34-1.657.502-8.544 2.318-15.42 5.9-21.02 10.947-13.32 12.003-21.124 27.196-23.197 45.16-.691 5.987-.836 12.124-.977 18.059-.075 3.212-.153 6.535-.318 9.79-.251 4.976-.645 10.26-1.204 16.153-.51 5.367-2.895 10.346-7.735 16.153a6.8 6.8 0 0 1-2.17 1.454c-.4.204-.811.414-1.2.65a15 15 0 0 1-1.08.578 7.8 7.8 0 0 0-2.373 1.587c-.894.988-1.217 2.051-.909 2.995.317.975 1.248 1.672 2.621 1.966 1.25.232 2.523.314 3.792.244m84.095-1.628c-.255 5.789-3.114 9.471-8.514 10.949-5.876 1.606-10.924 1.338-15.436-.824-3.97-1.902-6.085-5.044-6.794-10.125zm-75.023-6.243c6.979-8.072 8.267-17.74 8.618-26.989.145-3.802.214-7.668.282-11.406.087-4.854.177-9.873.432-14.794 1.033-19.95 8.005-35.521 21.315-47.605 6.858-6.228 15.674-9.893 26.198-10.888a47 47 0 0 1 4.456-.213c9.991 0 19.179 3.285 27.378 9.798 8.297 6.592 13.774 15.773 16.28 27.286 2.641 12.13 5.19 24.936 8.032 40.302 2.567 13.895 6.95 23.751 14.135 31.701-46.948-.667-88.563.251-127.126 2.808m62.87-126.04c2.98.214 4.805 2.726 4.755 6.466H72.642c.697-3.614 3.752-6.686 6.636-6.466"/></g><defs><clipPath id="a"><path fill="#fff" d="M.777 0h157v161h-157z"/></clipPath></defs></svg>
